lib/healthicons/icons/outline/typography/O.svg

<svg fill="none" height="48" viewBox="0 0 48 48" width="48" xmlns="http://www.w3.org/2000/svg"><path clip-rule="evenodd" d="m9 24c0-8.2843 6.7157-15 15-15s15 6.7157 15 15-6.7157 15-15 15-15-6.7157-15-15zm15-13c-7.1797 0-13 5.8203-13 13s5.8203 13 13 13 13-5.8203 13-13-5.8203-13-13-13zm0 4c-4.9706 0-9 4.0294-9 9s4.0294 9 9 9 9-4.0294 9-9-4.0294-9-9-9zm-11 9c0-6.0751 4.9249-11 11-11s11 4.9249 11 11-4.9249 11-11 11-11-4.9249-11-11z" fill="#333" fill-rule="evenodd"/></svg>

<svg width="48" height="48" viewBox="0 0 48 48" fill="none" xmlns="http://www.w3.org/2000/svg">
<path fill-rule="evenodd" clip-rule="evenodd" d="M9 24C9 15.7157 15.7157 9 24 9C32.2843 9 39 15.7157 39 24C39 32.2843 32.2843 39 24 39C15.7157 39 9 32.2843 9 24ZM24 11C16.8203 11 11 16.8203 11 24C11 31.1797 16.8203 37 24 37C31.1797 37 37 31.1797 37 24C37 16.8203 31.1797 11 24 11ZM24 15C19.0294 15 15 19.0294 15 24C15 28.9706 19.0294 33 24 33C28.9706 33 33 28.9706 33 24C33 19.0294 28.9706 15 24 15ZM13 24C13 17.9249 17.9249 13 24 13C30.0751 13 35 17.9249 35 24C35 30.0751 30.0751 35 24 35C17.9249 35 13 30.0751 13 24Z" fill="#333333"/>
</svg>
